static/img/source/Vector.svg

<svg width="803" height="515" fill="none" xmlns="http://www.w3.org/2000/svg"><path d="M759.795 0H42.872C19.18 0 0 19.59 0 43.692v426.975c0 24.102 19.18 43.692 42.77 43.692h716.922c23.59 0 42.77-19.59 42.77-43.692V43.692C802.564 19.59 783.385 0 759.795 0ZM298.564 356.41h-61.538V239.487a4.114 4.114 0 0 0-4.103-4.102c-2.051 0-3.692 1.436-4 3.384l-36 117.641h-44.205l-35.897-117.743c-.308-1.846-1.949-3.282-4-3.282a4.114 4.114 0 0 0-4.103 4.102V356.41H43.179V155.385h68.616c11.282 0 23.179 8.82 26.461 19.589l29.949 97.949c1.539 4.923 3.898 4.821 5.436 0l29.949-97.949c3.282-10.871 15.179-19.589 26.461-19.589h68.513V356.41Zm228.718 0h-61.538V236.923c-.103-1.949-1.641-3.59-3.693-3.59-1.436 0-2.564.718-3.179 1.949v.103c0 .102-.103.205-.103.307l-50.256 107.795c-3.18 6.975-11.795 12.616-19.59 13.026h-61.538V155.487h61.538V272.41a4.115 4.115 0 0 0 4.103 4.103 4.122 4.122 0 0 0 3.384-1.744c.205-.41.411-.718.513-1.231l48.923-105.025c3.282-7.077 12.103-12.718 19.898-13.026h61.538V356.41Zm162.051-64.615H619.59v65.641h-61.539V246.667h194.975c-9.436 26.154-34.359 44.923-63.693 45.128Zm66.257-55.385H648.615c-52.307 0-95.179-35.795-98.769-81.025h139.282c37.436.307 67.693 30.666 67.693 68.205 0 4.41-.411 8.718-1.231 12.82Z" fill="#fff"/></svg>

<svg width="803" height="515" viewBox="0 0 803 515" fill="none" xmlns="http://www.w3.org/2000/svg">
<path d="M759.795 0H42.8718C19.1795 0 0 19.5897 0 43.6923V470.667C0 494.769 19.1795 514.359 42.7692 514.359H759.692C783.282 514.359 802.462 494.769 802.462 470.667V43.6923C802.564 19.5897 783.385 0 759.795 0ZM298.564 356.41H237.026V239.487C237.026 237.231 235.18 235.385 232.923 235.385C230.872 235.385 229.231 236.821 228.923 238.769L192.923 356.41H148.718L112.821 238.667C112.513 236.821 110.872 235.385 108.821 235.385C106.564 235.385 104.718 237.231 104.718 239.487V356.41H43.1795V155.385H96H111.795C123.077 155.385 134.974 164.205 138.256 174.974L168.205 272.923C169.744 277.846 172.103 277.744 173.641 272.923L203.59 174.974C206.872 164.103 218.769 155.385 230.051 155.385H245.744H298.564V356.41ZM527.282 356.41H465.744V236.923C465.641 234.974 464.103 233.333 462.051 233.333C460.615 233.333 459.487 234.051 458.872 235.282V235.385C458.872 235.487 458.769 235.59 458.769 235.692L408.513 343.487C405.333 350.462 396.718 356.103 388.923 356.513H327.385V155.487H388.923V272.41C388.923 274.667 390.769 276.513 393.026 276.513C394.462 276.513 395.692 275.795 396.41 274.769C396.615 274.359 396.821 274.051 396.923 273.538L445.846 168.513C449.128 161.436 457.949 155.795 465.744 155.487H527.282V356.41ZM689.333 291.795H619.59V357.436H558.051V246.667H753.026C743.59 272.821 718.667 291.59 689.333 291.795ZM755.59 236.41C755.59 236.41 648.718 236.41 648.615 236.41C596.308 236.41 553.436 200.615 549.846 155.385H689.128C726.564 155.692 756.821 186.051 756.821 223.59C756.821 228 756.41 232.308 755.59 236.41Z" fill="white"/>
</svg>
